X: 208
T: WALTZ: Flatworld
C: C: Andy Cutting; S: Various
C: Set Leaders: Olya, Tania
Z: Anton Zille ed., Oleg Naumov arr.; Mario at The Session
N: https://thesession.org/members/26966/sets/92070
R: Waltz
M: 3/4
L: 1/8
Q: 1/4=144
K: Bmin
|:f ef|"Bm"df cf Bf|"G"G2 Bc dB|"Em"g2 gf ed|"F#m"c3 f ef|
"Bm"df cf Bf|"G"G2 gf ed|"A"cB ce dc|1 "Bm"B3:|2 "Bm"B6||
"Bm"Bc dB ba|"G"g2 gf ed|"A"cd ec ag|"F#m"f2 fe dc|
"G"Bc dB gf|"Em"e2 ed cB|"F#m"c2 ce ^de|"F#m"c4 dc|
"Bm"Bc dB ba|"G"g2 gf ed|"A"cd ec ag|"F#m"f2 fe dc|
"G"Bc dB gf|"Em"e2 ed cB|"A"cB ce dc| "Bm"B3||

